X:6185
T:South Wind
O:england
M:3/4
L:1/4
R:Waltz
K:D
AG|"D"F>ED|"A7"FG"D"A|"A7"E>FE|"A7"E2A/G/|"D"F>ED|"G"B,>A,B,|"D"D3|1"D"
D3:||2"D"DFA||:"D"d>ed|"G"d>cB|"D"A2"G"G|"D"F2"G"(3G/A/G/|"D"F>ED|"D"F"A
"G"D"A|"A"E3| "A"EFA|"D"d>ed|"G"d>cB|"D"A2"G"G|"D"F2"G"(3G/A/G/|"D"F>ED|
"A"EGC|"D"D3|"D"D2||


